X:2765
T:Catharsis
M:C|
L:1/8
C:Amy Cann
S:Natalie MacMaster ("No Boundaries" CD)
Z:Transcribed by Tony Ludiker
Z:Posted by Tony Ludiker 12/97
Z:Bowing removed by Alf 'cos that's how I like it
K:Gm
DFGF DFGF | DFGA BGAF | DFGF DFGF | DEDC B,CA,B,|
G,FGF DFGF|DFGA {Bc}B3c | dc (3B/c/B/A (BA)GF |1 DG (3G/A/G/F G4 :|2 DG (3G/A/G/F GABc ||
|: dGGc GGBG | GAGG AGAc | dFFc FFBF | FAFF AGAc |
dEEc EEBE | EAEE AGAc | dc (3B/c/B/A BAGF |1 DG (3G/A/G/F GABc :|2 DG (3G/A/G/F G4 |]


